!!!!SEGMENT: pl-kk--kk-i-625--001-006_lisinski-karol--vesperae-ex-a-magnificat.krn
!!!cenid: 18xx:4605
!!!COM: Lisiński, Karol
!!!COM-rismID: pe50053612
!!!CDT:
!!!CNT: Polish
!!!OPR: Vesperae ex A
!!!OTL: Magnificat
!!!OMV: 006
!!!PDT:
!!!AGN: Sacred; Vespers
!!!YEC: Copyright 2022 Narodowy Instytut Fryderyka Chopina (https://polishscores.org)
!!!YEM: License CC-BY-4.0 (https://creativecommons.org/licenses/by/4.0)
!!!SMS-siglum: PL-Kk
!!!SMS-shelfmark: Kk.I.625
!!!SMS-variant: Violino Primo: Kk.I.625: 28 ; Violino Secundo: Kk.I.625: 38
!!!SMS-altvar: Violino Primo: Kk.I.625: 23 ; Violino Secundo: Kk.I.625: 33
!!!SMS-shelfwork: 001-006 M
!!!NIFC-rismSourceID: 1001210166
!!!NIFC-rismChildID: 1001210166
!!!NIFC-islandoraID: pl-kk:20012
!!!URL-pdf-islandora: https://repozytorium.nifc.pl/islandora/object/pl-kk:20012/datastream/PDF/view
!!!URL-scan: https://polish.musicsources.pl/pl/lokalizacje/galeria/rekopisy/7259/2 @EN{Scan on Polish Music Sources Website} @PL{Skany w portalu Dziedzictwo Muzyki Polskiej w otwartym dostępie}
!!!IIIF:
!!!ONB-nifc: UWAGA: Części Nieszporów: 1. Dixit Dominus, 2. Confitebor, 3. Beatus vir, 4. Laudate pueri, 5. In exitu, 6. Magnificat. Gloria wchodzi w ramy powyższych części. Uwaga: Partia Organo na skanach 44-46 i 2. Uwaga: Violino Primo i Secondo wg drugich odpisów spisanych ręką tą samą co reszta partii (s. 25-28 i 35-38). Proszę uzupełnić pola SMS:variant i SMS:altvar.
!!!AIN: 1 alto 1 bass 1 canto 2 clrno 1 organ 1 tenor 2 violn
!!!key:
**kern	**fba	**kern	**kern	**kern	**text	**kern	**text	**kern	**text	**kern	**text	**kern	**kern
*part9	*	*part8	*part7	*part6	*part6	*part5	*part5	*part4	*part4	*part3	*part3	*part2	*part1
*staff9	*	*staff8	*staff7	*staff6	*staff6	*staff5	*staff5	*staff4	*staff4	*staff3	*staff3	*staff2	*staff1
*I"Organo	*	*I"Violino II	*I"Violino Primo	*I"Baſso	*	*I"Tenore	*	*I"Alto	*	*I"Canto	*	*I"Clarino Secundo	*I"Clarino Primo
*I'Org.	*	*I'Vn II	*I'Vn I	*I'B.	*	*I'T.	*	*I'A.	*	*I'C.	*	*I'Cl. in B♭	*I'Cl. in B♭
*Iorgan	*	*Ivioln	*Ivioln	*Ibass	*	*Itenor	*	*Ialto	*	*Icanto	*	*Iclrno	*Iclrno
*ICklav	*	*ICstr	*ICstr	*ICvox	*	*ICvox	*	*ICvox	*	*ICvox	*	*ICbras	*ICbras
*clefF4	*	*clefG2	*clefG2	*clefF4	*	*clefC4	*	*clefC3	*	*clefC1	*	*clefG2	*clefG2
*	*	*	*	*	*	*	*	*	*	*	*	*ITrd2c3	*ITrd2c3
*k[f#c#g#]	*	*k[f#c#g#]	*k[f#c#g#]	*k[f#c#g#]	*	*k[c#f#g#]	*	*k[c#f#g#]	*	*k[f#c#g#]	*	*k[f#c#g#]	*k[f#c#g#]
*A:	*	*A:	*A:	*A:	*	*A:	*	*A:	*	*A:	*	*A:	*A:
*M4/4	*	*M4/4	*M4/4	*M4/4	*	*M4/4	*	*M4/4	*	*M4/4	*	*M4/4	*M4/4
*met(c)	*	*met(c)	*met(c)	*met(c)	*	*met(c)	*	*met(c)	*	*met(c)	*	*met(c)	*met(c)
=1	=1	=1	=1	=1	=1	=1	=1	=1	=1	=1	=1	=1	=1
!LO:TX:a:t=adagio	!	!LO:TX:a:t=adagio	!LO:TX:a:t=ada(gio)	!LO:TX:a:t=adagio	!	!LO:TX:a:t=2	!	!	!	!LO:TX:a:t=Adagio	!	!LO:TX:a:t=Ex A&colon;	!LO:TX:a:t=ad(agi)o
!LO:TX:a:t=T	!	!LO:TX:b:t=Magnificat	!	!	!	!	!	!	!	!	!	!LO:TX:b:t=Magnificat	!LO:TX:b:t=Magnificat
!LO:TX:b:t=Magnificat	!	!	!	!	!	!	!	!	!	!	!	!	!LO:TX:a:t=Ex A&colon;
4A\	.	4cc#\	4r	0r	.	0r	.	1r	.	4r	.	1r	4r
*clefC1	*	*	*	*	*	*	*	*	*	*	*	*	*
4ee\	.	4r	4ee\	.	.	.	.	.	.	4ee\	Ma-	.	4ee\
4cc#\	.	2r	4cc#\	.	.	.	.	.	.	4cc#\	-gni-	.	4cc#\
4b\	.	.	4b\	.	.	.	.	.	.	4b\	-fi-	.	4b\
=2	=2	=2	=2	=2	=2	=2	=2	=2	=2	=2	=2	=2	=2
*^	*	*	*	*	*	*	*	*	*	*	*	*	*
4a/	4r	.	4r	4a/	.	.	.	.	4r	.	4a\	-cat	4r	4a\
4g#/	4e\	.	4e/	4g#/	.	.	.	.	4e\	Ma-	4g#\	Ma-	4r	4r
4a/	4f#\	.	4f#/	4a/	.	.	.	.	4f#\	-gni-	4a\	-gni-	4c#/	4a\
4b/	4g#\	.	4g#/	4b/	.	.	.	.	4g#\	-fi-	4b\	-fi-	4e/	4b\
=3	=3	=3	=3	=3	=3	=3	=3	=3	=3	=3	=3	=3	=3	=3
4cc#/	4a\	.	4a\	4cc#\	1r	.	4r	.	4a\	-cat	4cc#\	-cat	4a\	4cc#\
*clefC4	*	*	*	*	*	*	*	*	*	*	*	*	*	*
4e\	4ryy	#	4b\	4ee\	.	.	4e\	Ma-	4g#\	ma-	4b\	ma-	4e/	4b\
4c#\	2ryy	6	8cc#\L	4aa\	.	.	4c#\	-gni-	4a\	-gni-	8cc#\L	-gni-	8a\L	8cc#\L
.	.	.	8ee\J	.	.	.	.	.	.	.	8ee\J	.	8cc#\J	8ee\J
4B\	.	6\	4dd\	4gg#\	.	.	4B\	-fi-	4a\	-fi-	4dd\	-fi-	4b\	4dd\
*v	*v	*	*	*	*	*	*	*	*	*	*	*	*	*
=4	=4	=4	=4	=4	=4	=4	=4	=4	=4	=4	=4	=4	=4
4A\	.	4cc#\	4aa\	4r	.	4A\	-cat	4a\	-cat	4cc#\	-cat	4a\	4cc#\
*clefF4	*	*	*	*	*	*	*	*	*	*	*	*	*
4E\	.	4ee\	4gg#\	4E\	Ma-	4B\	ma-	4g#\	ma-	4ee\	Ma-	4cc#\	4ee\
4F#\	76	8ee\L	4aa\	4F#\	-gni-	4A\	-gni-	4a\	-gni-	(8ee\L	-gni-	8cc#\L	(8ee\L
.	.	8dd\	.	.	.	.	.	.	.	8dd\J)	.	8b\	8dd\)J
!	!	!	!	!	!	!	!	!	!	!LO:LB:g=original	!	!	!
4G#\	56	8dd\	4bb\	4G#\	-fi-	4G#/	-fi-	4b\	-fi-	8dd\L	-fi-	8b\	8dd\L
.	.	8ee\J	.	.	.	.	.	.	.	8ee\J	.	8cc#\J	8ee\J
!LO:LB:g=original	!	!	!LO:LB:g=original	!	!	!	!	!	!	!	!	!	!
=5	=5	=5	=5	=5	=5	=5	=5	=5	=5	=5	=5	=5	=5
*2\right	*	*	*	*	*	*	*	*	*	*	*	*	*
2A\	98	8cc#\L	8bb\L	4A\	-cat	4E/	-cat	8b\L	-cat	4cc#\	-cat	4a\	4cc#\
.	.	8ee\	8ee\J	.	.	.	.	8e\J	.	.	.	.	.
.	.	8cc#\	4aa\	4r	.	4r	.	8r	.	4r	.	4r	4r
*	*	*	*	*	*	*	*	*	*ij	*	*	*	*
.	.	8a\J	.	.	.	.	.	8a\	ma-	.	.	.	.
!	!	!LO:LB:g=original	!LO:TX:a:t=P:problem:mixed beam	!	!	!	!	!	!	!	!	!	!
4F#\	5 -	8cc#\L	8aa\L	4F#\	a-	4A\	a-	4a\	-gni-	4cc#\	a-	4a\	4cc#\
.	.	8cc#\	8a/	.	.	.	.	.	.	.	.	.	.
8F#\L	.	8cc#\	8aa\	8F#\	-ni-	8c#\	-ni-	8a\	-fi-	8cc#\	-ni-	8a\L	8cc#\L
8F#\J	.	8cc#\J	8aa\J	8F#\	-ma	8A\	-ma	8a\	-cat	8cc#\	-ma	8a\J	8cc#\J
*	*	*	*	*	*	*	*	*	*Xij	*	*	*	*
!	!	!	!	!	!	!	!	!LO:LB:g=original	!	!	!	!	!
=6	=6	=6	=6	=6	=6	=6	=6	=6	=6	=6	=6	=6	=6
4D#X\	-7	4.ccn\	4.aa\	4D#X/	me-	4A/	me-	4f#\	a-	4.ccn\	me-	1r	1r
4D#\	.	.	.	4D#/	-a	4A/	-a	8f#\	-ni-	.	.	.	.
.	.	8cc\	8aa\	.	.	.	.	8f#\	-ma	8cc\	-a	.	.
!	!	!	!	!	!	!LO:LB:g=original	!	!	!	!	!	!	!
*	*	*	*	*2\right	*	*	*	*	*	*	*	*	*
2E\	5 3	4b\	4gg#\	2E\	Do-	4G#/	Do-	4g#\	me-	(4b\	Do-	.	.
.	6 4	4cc\	4aa\	.	.	4G#/	.	4a\	-a	4cc#X\)	.	.	.
=7	=7	=7	=7	=7	=7	=7	=7	=7	=7	=7	=7	=7	=7
*	*	*2\right	*	*	*	*	*	*	*	*	*	*	*
2E\	6 4	2b\	4aa\	2E\	-mi-	4e\	.	4.a\	Do-	4.b\	.	4e/	4b\
.	5 3	.	4gg#\	.	.	4e\	-mi-	.	.	.	.	4e/	4b\
.	.	.	.	.	.	.	.	8g#\	-mi-	8b\	-mi-	.	.
*	*	*	*2\right	*	*	*2\right	*	*2\right	*	*2\right	*	*2\right	*
!	!	!	!	!LO:TX:a:t=a	!	!	!	!	!	!	!	!	!
!LO:SIC:v:s=2AA/	!	!	!	!	!	!	!	!	!	!	!	!	!
2BB/	7	2cc#\	2aa\	2AA/	-num	2e\	-num	2a\	-num	2cc#\	-num	2a\	2cc#\
.	5	.	.	.	.	.	.	.	.	.	.	.	.
!	!	!LO:LB:g=original	!LO:LB:g=original	!LO:LB:g=original	!	!	!	!	!	!LO:LB:g=original	!	!LO:LB:g=original	!LO:LB:g=original
=8||	=8||	=8||	=8||	=8||	=8||	=8||	=8||	=8||	=8||	=8||	=8||	=8||	=8||
!LO:TX:a:t=All(egr)o	!	!LO:TX:a:t=Vivace	!LO:TX:a:t=all(egr)o	!	!	!	!	!	!	!	!	!	!LO:TX:b:t=Et exultavit
!LO:TX:a:t=T.	!	!	!	!	!	!	!	!	!	!	!	!	!
8AA/L	.	16a/LL	16a/LL	8AA/L	Et	4A\	Et	4e\	Et	8cc#\L	Et	8a\L	8cc#\L
.	.	16e/	16e/	.	.	.	.	.	.	.	.	.	.
8BB/	.	16e/	16e/	8BB/J	.	.	.	.	.	8dd\J	.	8b\	8dd\
.	.	16e/JJ	16e/JJ	.	.	.	.	.	.	.	.	.	.
8C#/	.	16e/LL	16e/LL	8C#/	e-	8A\	e-	8e\	e-	8ee\	e-	8cc#\	8ee\
.	.	16a/	16a/	.	.	.	.	.	.	.	.	.	.
8AA/J	.	16b/	16b/	8AA/	-xul-	8e\	-xul-	8e\	-xul-	8cc#\	-xul-	8a\J	8cc#\J
.	.	16cc#/JJ	16cc#/JJ	.	.	.	.	.	.	.	.	.	.
8E\L	.	16b/LL	16b/LL	8E\	-ta-	8e\	-ta-	8g#\	-ta-	8b\	-ta-	8e/L	8b\L
.	.	16e/	16e/	.	.	.	.	.	.	.	.	.	.
8F#\	.	16e/	16e/	8F#\	-vit	8e\	-vit	8a\	-vit	8b\	-vit	8e/J	8b\J
.	.	16e/JJ	16e/JJ	.	.	.	.	.	.	.	.	.	.
8G#\	.	16e/LL	16e/LL	8G#\	Spi-	8e\	Spi-	8b\	Spi-	8ee\	Spi-	8cc#\L	8ee\L
.	.	16b/	16b/	.	.	.	.	.	.	.	.	.	.
8E\J	.	16cc#/	16cc#/	16E\	-ri-	16e\	-ri-	16g#\	-ri-	16dd\	-ri-	16b\L	16dd\L
.	.	16dd/JJ	16dd/JJ	16E\	-tus	16e\	-tus	16g#\	-tus	16dd\	-tus	16b\JJ	16dd\JJ
=9	=9	=9	=9	=9	=9	=9	=9	=9	=9	=9	=9	=9	=9
8A\L	.	16cc#/LL	16cc#/LL	8A\L	me-	4e\	me-	4e\	me-	8cc#\L	me-	8a\L	8cc#\L
.	.	16e/	16e/	.	.	.	.	.	.	.	.	.	.
8B\	.	16e/	16e/	8B\J	.	.	.	.	.	8dd\J	.	8b\	8dd\
.	.	16e/JJ	16e/JJ	.	.	.	.	.	.	.	.	.	.
8c#\	.	16e/LL	16e/LL	8c#\	-us	8A\	-us	8e\	-us	8ee\	-us	8cc#\	8ee\
.	.	16cc#/	16cc#/	.	.	.	.	.	.	.	.	.	.
8A\J	.	16dd/	16dd/	8A\	in	8c#\	in	8a\	in	8cc#\	in	8a\J	8cc#\J
.	.	16ee/JJ	16ee/JJ	.	.	.	.	.	.	.	.	.	.
!	!	!LO:TX:a:t=P:problem:mixed beam	!LO:TX:a:t=P:problem:mixed beam	!	!	!	!	!	!	!	!	!	!
8B\L	-	16dd\LL	16dd\LL	8B\	De-	8B\	De-	8f#\	De-	8dd\	De-	8b\L	8dd\L
.	.	16e/	16e/	.	.	.	.	.	.	.	.	.	.
8A\	.	16e/	16e/	8A\	-o	8B\	-o	8f#\	-o	8dd\	-o	8b\	8dd\
.	.	16e/JJ	16e/JJ	.	.	.	.	.	.	.	.	.	.
!	!	!LO:TX:a:t=P:problem:mixed beam	!LO:TX:a:t=P:problem:mixed beam	!	!	!	!	!LO:LB:g=original	!	!	!	!	!
8G#\	6 5	16e/LL	16e/LL	8G#\	sa-	8B\	sa-	8e\	sa-	8dd\	sa-	8b\	8dd\
.	.	16dd\	16dd\	.	.	.	.	.	.	.	.	.	.
8E\J	.	16cc#\	16cc#\	8E\	-lu-	8B\	-lu-	8e\	-lu-	8dd\	-lu-	8b\J	8dd\J
.	.	16b\JJ	16b\JJ	.	.	.	.	.	.	.	.	.	.
!LO:LB:g=original	!	!LO:LB:g=original	!	!LO:LB:g=original	!	!	!	!	!	!LO:LB:g=original	!	!	!
=10	=10	=10	=10	=10	=10	=10	=10	=10	=10	=10	=10	=10	=10
8A\L	.	16cc#\LL	16cc#\LL	8A\L	-ta-	4.A\	-ta-	4.e\	-ta-	(8cc#\L	-ta-	8a\L	8cc#\L
.	.	16a\	16a\	.	.	.	.	.	.	.	.	.	.
8B\	.	16a\	16a\	8B\J	.	.	.	.	.	8dd\J)	.	8b\	8dd\
.	.	16a\JJ	16a\JJ	.	.	.	.	.	.	.	.	.	.
!	!	!	!LO:LB:g=original	!	!	!	!	!	!	!	!	!	!
8c#\	.	16a\LL	16a\LL	8c#\L	-ri	.	.	.	.	(8ee\L	-ri	8cc#\	8ee\
.	.	16ee\	16ee\	.	.	.	.	.	.	.	.	.	.
8A\J	.	16ff#\	16ff#\	8A\J	.	8A\	-ri	8e\	-ri	8cc#\J)	.	8a\J	8cc#\J
.	.	16gg#\JJ	16ggn\JJ	.	.	.	.	.	.	.	.	.	.
!	!	!	!	!	!	!LO:LB:g=original	!	!	!	!	!	!	!
8D\L	.	16ff#\LL	16ff#\LL	8D/	me-	8A\	me-	8f#\	me-	8dd\	me-	8b\L	8dd\L
.	.	16a\	16a\	.	.	.	.	.	.	.	.	.	.
8E\	.	16a\	16a\	8E/	-o	8A\	-o	8gn\	-o	8dd\	-o-	8b\	8dd\J
.	.	16a\JJ	16a\JJ	.	.	.	.	.	.	.	.	.	.
8F#\	.	16a\LL	16a\LL	8F#\	qui-	8A\	qui-	8a\	qui-	8dd\	-qui-	8b\	8dd\L
.	.	16dd\	16dd\	.	.	.	.	.	.	.	.	.	.
8D\J	.	16ee\	16ee\	16D/	-a	16A\	-a	16f#\	-a	16dd\	-a	8b\J	16dd\L
.	.	16ff#\JJ	16ff#\JJ	16D/	res-	16A\	res-	16f#\	re-	16dd\	re-	.	16dd\JJ
=11	=11	=11	=11	=11	=11	=11	=11	=11	=11	=11	=11	=11	=11
8A\L	.	16ee\LL	16ee\LL	(8A\L	-pe-	4A\	-pe-	4e\	-spe-	(8cc#\L	-spe-	8a\L	8cc#\L
.	.	16a\	16a\	.	.	.	.	.	.	.	.	.	.
8B\	.	16a\	16a\	8B\J)	.	.	.	.	.	8dd\J)	.	8b\	8dd\
.	.	16a\JJ	16a\JJ	.	.	.	.	.	.	.	.	.	.
8c#\	.	16a\LL	16a\LL	8c#\	-xit	8A\	-xit	8e\	-xit	8ee\	-xit	8cc#\	8ee\
.	.	16ee\	16ee\	.	.	.	.	.	.	.	.	.	.
8A\J	.	16dd\	16dd\	8A\	hu-	8c#\	hu-	8a\	hu-	8cc#\	hu-	8a\J	8cc#\J
.	.	16cc#\JJ	16cc#\JJ	.	.	.	.	.	.	.	.	.	.
!	!	!LO:TX:a:t=P:problem:mixed beam	!LO:TX:a:t=P:problem:mixed beam	!	!	!	!	!	!	!	!	!	!
8B\L	-	16dd\LL	16dd\LL	8B\	-mi-	8B\	-mi-	8f#\	-mi-	8dd\	-mi-	8b\L	8dd\L
.	.	16e/	16e/	.	.	.	.	.	.	.	.	.	.
8A\	.	16e/	16e/	8A\	-li-	8B\	-li-	8f#\	-li-	8dd\	-li-	8b\	8dd\J
.	.	16e/JJ	16e/JJ	.	.	.	.	.	.	.	.	.	.
!	!	!LO:TX:a:t=P:problem:mixed beam	!LO:TX:a:t=P:problem:mixed beam	!	!	!	!	!	!	!	!	!	!
8G#\	65	16e/LL	16e/LL	8G#\	-ta-	8B\	-ta-	8e\	-ta-	8dd\	-ta-	8b\	8dd\L
.	.	16dd\	16dd\	.	.	.	.	.	.	.	.	.	.
8E\J	.	16cc#\	16cc#\	16E\	-tem	16B\	-tem	16e\	-tem	16dd\	-tem	8b\J	16dd\L
.	.	16b\JJ	16b\JJ	16E\	an-	16B\	an-	16e\	an-	16dd\	an-	.	16dd\JJ
!	!	!	!	!LO:LB:g=original	!	!	!	!	!	!	!	!	!
=12	=12	=12	=12	=12	=12	=12	=12	=12	=12	=12	=12	=12	=12
8A\L	.	16cc#\LL	16cc#\LL	8A\L	-cil-	4.A\	-cil-	4.e\	-cil-	8cc#\L	-cil-	8a\L	8cc#\L
.	.	16a\	16a\	.	.	.	.	.	.	.	.	.	.
8B\	.	16a\	16a\	8B\J	.	.	.	.	.	8dd\J	.	8b\	8dd\
.	.	16a\JJ	16a\JJ	.	.	.	.	.	.	.	.	.	.
!	!	!LO:LB:g=original	!	!	!	!	!	!	!	!LO:PB:g=original	!	!	!
8c#\	.	16a\LL	16a\LL	8c#\L	-lae	.	.	.	.	8ee\L	-lae	8cc#\	8ee\
.	.	16aa\	16aa\	.	.	.	.	.	.	.	.	.	.
8A\J	.	16aa\	16aa\	8A\J	.	8A\	-lae	8e\	-lae	8cc#\J	.	8a\J	8cc#\J
.	.	16aa\JJ	16aa\JJ	.	.	.	.	.	.	.	.	.	.
!	!	!	!LO:PB:g=original	!	!	!	!	!	!	!	!	!	!
8D\L	.	16ff#\LL	16ff#\LL	8D/	su-	8A\	su-	8f#\	su-	8dd\	su-	8b\L	8dd\L
.	.	16a\	16a\	.	.	.	.	.	.	.	.	.	.
8E\	.	16a\	16a\	8E\	-ae	8A\	-ae	8gn\	-e	8dd\	-ae	8b\	8dd\
.	.	16a\JJ	16a\JJ	.	.	.	.	.	.	.	.	.	.
!	!	!	!	!	!	!LO:PB:g=original	!	!	!	!	!	!	!
!	!	!	!	!	!	!LO:TX:a:t=przekreślone takty	!	!	!	!	!	!	!
8F#\	.	16a\LL	16a\LL	8F#\	ec-	8A\	ec-	8a\	ec-	8dd\	ec-	8b\	8dd\
.	.	16ff#\	16ff#\	.	.	.	.	.	.	.	.	.	.
8D\J	.	16ee\	16ee\	8D\	-ce	8A\	-ce	8f#\	-ce	8dd\	-ce	8b\J	8dd\J
.	.	16dd\JJ	16dd\JJ	.	.	.	.	.	.	.	.	.	.
!	!	!	!	!	!	!LO:LB:g=original	!	!LO:LB:g=original	!	!	!	!	!
=13	=13	=13	=13	=13	=13	=13	=13	=13	=13	=13	=13	=13	=13
8A\L	.	16cc#\LL	16cc#\LL	8A\	e-	8A\	e-	8a\	e-	8cc#\	e-	8a\L	8cc#\L
.	.	16a\	16a\	.	.	.	.	.	.	.	.	.	.
8B\	.	16dd\	16dd\	16B\	-nim	16A\	-nim	16a\	-nim	16dd\	-nim	16b\L	16dd\L
.	.	16a\JJ	16a\JJ	16B\	ex	16A\	ex	16a\	ex	16dd\	ex	16b\JJ	16dd\JJ
8c#\	.	16ee\LL	16ee\LL	8c#\	hoc	8A\	hoc	8a\	hoc	8ee\	hoc	8cc#\L	8ee\L
.	.	16a\	16a\	.	.	.	.	.	.	.	.	.	.
8A\J	.	16cc#\	16cc#\	8A\	be-	8e\	be-	8a\	be-	8cc#\	be-	8a\J	8cc#\J
.	.	16a\JJ	16a\JJ	.	.	.	.	.	.	.	.	.	.
8B\L	-	16dd\LL	16dd\LL	8B\	-a-	8B\	-a-	8f#\	-a-	16dd\	-a-	4b\	4dd\
.	.	16dd\	16dd\	.	.	.	.	.	.	16dd\	-tam	.	.
8A\	.	16dd\	16ee\	16A\	-tam	16B\	-tam	16f#\	-tam	8dd\	me	.	.
.	.	16dd\JJ	16ee\JJ	16A\	me-	16B\	me-	16f#\	me-	.	.	.	.
8G#\	.	16dd\LL	16dd\LL	8G#\	-di-	8B\	-di-	8f#\	-di-	8dd\	di-	4b\	4dd\
.	.	16dd\	16ee\	.	.	.	.	.	.	.	.	.	.
8E\J	.	16dd\	16ee\	8E\	-cent	8B\	-cent	8f#\	-cent	8dd\	-cent	.	.
.	.	16dd\JJ	16ee\JJ	.	.	.	.	.	.	.	.	.	.
!LO:LB:g=original	!	!	!	!LO:LB:g=original	!	!	!	!	!	!	!	!	!
=14	=14	=14	=14	=14	=14	=14	=14	=14	=14	=14	=14	=14	=14
8A\L	.	16cc#\LL	16cc#\LL	8A\	om-	8A\	om-	8f#\	om-	8cc#\	om-	8a\L	8cc#\L
.	.	16a\	16a\	.	.	.	.	.	.	.	.	.	.
8B\	.	16dd\	16dd\	8B\	-nes	8A\	-nes	8g#\	-nes	8dd\	-nes	8b\	8dd\
.	.	16a\JJ	16a\JJ	.	.	.	.	.	.	.	.	.	.
8c#\	.	16ee\LL	16ee\LL	8c#\	ge-	8A\	ge-	8a\	ge-	8ee\	ge-	8cc#\	8ee\
.	.	16a\	16a\	.	.	.	.	.	.	.	.	.	.
8A\J	.	16ee\	16ee\	8B\	-ne-	8A\	-ne-	8g#\	-ne-	8dd\	-ne-	8b\J	8dd\J
.	.	16a\JJ	16a\JJ	.	.	.	.	.	.	.	.	.	.
!LO:TX:a:t=P:problem:mixed beam	!	!	!	!	!	!	!	!	!	!	!	!LO:LB:g=original	!LO:LB:g=original
8A\L	.	8cc#\L	8cc#\L	8A\	-ra-	8A\	-ra-	8e\	-ra-	8cc#\	-ra-	8a\L	8cc#\L
8D\	6	8b\	8b\J	8D\	-ti-	8A\	-ti-	8f#\	-ti-	8b\	-ti-	8b\J	8dd\J
!	!	!	!LO:LB:g=original	!	!	!	!	!	!	!LO:LB:g=original	!	!	!
8E\	.	8.bT\	8.b\L	4E\	-o-	8A\L	-o-	4e\	-o-	4b\	-o-	4e/	4b\
8EE/J	3	.	.	.	.	8G#\J	.	.	.	.	.	.	.
.	.	16a\Jk	16a\Jk	.	.	.	.	.	.	.	.	.	.
!	!	!LO:LB:g=original	!	!	!	!LO:LB:g=original	!	!	!	!	!	!	!
=15	=15	=15	=15	=15	=15	=15	=15	=15	=15	=15	=15	=15	=15
!	!	!	!LO:TX:a:t=P:problem:mixed beam	!	!	!	!	!	!	!	!	!	!
8AA/L	.	16a\LL	16a/LL	4AA/	-nes	4A\	-nes	4e\	-nes	4a\	-nes	4c#/	4a\
.	.	16cc#\	16aa\	.	.	.	.	.	.	.	.	.	.
8D/	.	16dd\	16bb\	.	.	.	.	.	.	.	.	.	.
.	.	16cc#\JJ	16aa\JJ	.	.	.	.	.	.	.	.	.	.
8E/	.	8.b\L	8.gg#\L	4r	.	4r	.	4r	.	4r	.	4r	4r
8EE/J	.	.	.	.	.	.	.	.	.	.	.	.	.
.	.	16b\Jk	16aa\Jk	.	.	.	.	.	.	.	.	.	.
!	!	!	!LO:TX:a:t=P:problem:mixed beam	!	!	!	!	!	!	!	!	!	!
4AA/	.	4cc#\	8aa\L	2r	.	2r	.	2r	.	4r	.	2r	2r
.	.	.	8a/	.	.	.	.	.	.	.	.	.	.
8A\L	.	8a/L	8cc#/	.	.	.	.	.	.	8cc#\	qui-	.	.
8B\J	6\	8g#/J	8dd/J	.	.	.	.	.	.	8dd\	-a	.	.
=16	=16	=16	=16	=16	=16	=16	=16	=16	=16	=16	=16	=16	=16
!LO:TX:a:t=Solo	!	!	!	!	!	!	!	!	!	!	!	!	!
8.c#\L	.	8a/L	8ee\L	00r	.	00r	.	0r	.	8ee\	fe-	00r	00r
.	.	8a/	8a\	.	.	.	.	.	.	8cc#\	-cit	.	.
16c#\K	.	.	.	.	.	.	.	.	.	.	.	.	.
8d\	.	8a/	8ff#\	.	.	.	.	.	.	8ff#\	mi-	.	.
8B\J	.	8a/J	8dd\J	.	.	.	.	.	.	8dd\	-hi	.	.
!	!	!LO:TX:a:t=P:problem:mixed beam	!	!	!	!	!	!	!	!	!	!	!
8c#\L	.	8a\L	8ee\L	.	.	.	.	.	.	8ee\	ma-	.	.
16c#\L	.	16c#/L	16a\L	.	.	.	.	.	.	8a\	-gna	.	.
16B\JJ	.	16d/JJ	16b\J	.	.	.	.	.	.	.	.	.	.
8A\L	.	8e/L	8cc#\	.	.	.	.	.	.	8r	.	.	.
16C#\L	.	16e/L	8a\J	.	.	.	.	.	.	8a\	qui	.	.
16D\JJ	.	16f#/JJ	.	.	.	.	.	.	.	.	.	.	.
=17	=17	=17	=17	=17	=17	=17	=17	=17	=17	=17	=17	=17	=17
8E\L	6	4e/	8b\L	.	.	.	.	.	.	8b\L	po-	.	.
8C#\	.	.	8cc#\	.	.	.	.	.	.	8cc#\J	.	.	.
8BB\	7	8f#/L	8.dd\	.	.	.	.	.	.	8.dd\	-tens	.	.
8E\J	7	8g#/J	.	.	.	.	.	.	.	.	.	.	.
.	.	.	16dd\Jk	.	.	.	.	.	.	16dd\	est	.	.
!LO:LB:g=original	!	!	!	!	!	!	!	!	!	!	!	!	!
4A\	.	8a/L	8cc#\L	.	.	.	.	.	.	4cc#\	.	.	.
.	.	16c#/L	16a\L	.	.	.	.	.	.	.	.	.	.
.	.	16d/JJ	16b\J	.	.	.	.	.	.	.	.	.	.
8r	.	8e/L	8cc#\	.	.	.	.	.	.	8r	.	.	.
8A\	.	8e/J	8a\J	.	.	.	.	.	.	8ee\	et	.	.
!	!	!	!	!	!	!	!	!	!	!LO:LB:g=original	!	!	!
=18	=18	=18	=18	=18	=18	=18	=18	=18	=18	=18	=18	=18	=18
4A\	6	4c#/	8ff#\L	.	.	.	.	1r	.	8ff#\	San-	.	.
.	.	.	8ee\	.	.	.	.	.	.	8ee\	-ctum	.	.
8r	.	8r	8ff#\	.	.	.	.	.	.	8ff#\	no-	.	.
8A\	.	8f#/	8ee\J	.	.	.	.	.	.	8ee\	-men	.	.
!	!	!LO:LB:g=original	!LO:LB:g=original	!	!	!	!	!	!	!	!	!	!
4B\	#	4f#/	8dd#X\L	.	.	.	.	.	.	8dd#X\L	e-	.	.
.	.	.	8b\J	.	.	.	.	.	.	8b\J	.	.	.
8r	.	8r	[4ee\	.	.	.	.	.	.	4ee\	-jus	.	.
8G#\	6	8b/	.	.	.	.	.	.	.	.	.	.	.
!	!	!	!	!	!	!	!	!LO:LB:g=original	!	!	!	!	!
=19	=19	=19	=19	=19	=19	=19	=19	=19	=19	=19	=19	=19	=19
!LO:TX:a:t=P:problem:mixed beam	!	!	!	!	!	!	!	!	!	!	!	!	!
8A/L	.	8cc#/L	8ee\L]	.	.	.	.	2r	.	8ee\L	e-	.	.
8F#/	.	8cc#/	16ff#\L	.	.	.	.	.	.	16dd#X\L	.	.	.
.	.	.	16ee\JJ	.	.	.	.	.	.	16cc#\JJ	.	.	.
8B/	.	8b/	4dd#Xt\	.	.	.	.	.	.	4dd#\	.	.	.
8BB\J	.	8f#/J	.	.	.	.	.	.	.	.	.	.	.
4E\	.	4g#/	4ee\	.	.	.	.	8e\	et	4ee\	-jus	.	.
.	.	.	.	.	.	.	.	8f#\	mi-	.	.	.	.
8E\L	.	4r	8gg#\L	.	.	.	.	8g#\	-se-	4r	.	.	.
8F#\J	6\	.	8aa\J	.	.	.	.	8a\	-ri	.	.	.	.
=20	=20	=20	=20	=20	=20	=20	=20	=20	=20	=20	=20	=20	=20
8G#\L	6	8b/L	16bb\LL	00r	.	00r	.	8b\	cor-	00r	.	00r	00r
.	.	.	16ee\J	.	.	.	.	.	.	.	.	.	.
16G#\L	.	16b/L	8ee\J	.	.	.	.	16e\	-di-	.	.	.	.
16F#\JJ	.	16a/JJ	.	.	.	.	.	16e\	-a	.	.	.	.
!	!	!	!LO:TX:a:t=P:problem:mixed beam	!	!	!	!	!	!	!	!	!	!
8E\L	.	8g#/L	8e/L	.	.	.	.	8r	.	.	.	.	.
8c#\J	-5	8g#/J	8ee\J	.	.	.	.	8e\	e-	.	.	.	.
8B\L	#	8d#X/L	8ff#\L	.	.	.	.	8f#\L	.	.	.	.	.
!LO:TX:b:t=B	!	!	!	!	!	!	!	!	!	!	!	!	!
8BByy	6	8e/	8gg#\J	.	.	.	.	(8g#\J	.	.	.	.	.
8F#\	7	8e/	4aaT\	.	.	.	.	4a\)	.	.	.	.	.
8B\J	7	8d#/J	.	.	.	.	.	.	.	.	.	.	.
!LO:LB:g=original	!	!	!	!	!	!	!	!	!	!	!	!	!
=21	=21	=21	=21	=21	=21	=21	=21	=21	=21	=21	=21	=21	=21
8E\L	.	4e/	8gg#\L	.	.	.	.	4g#\	-jus	.	.	.	.
8F#\	.	.	8ff#\	.	.	.	.	.	.	.	.	.	.
8G#\	.	8r	8ee\	.	.	.	.	8r	.	.	.	.	.
8E\J	.	8b/	8gg#\J	.	.	.	.	16g#\	a	.	.	.	.
.	.	.	.	.	.	.	.	16g#\	pro-	.	.	.	.
4B\	#	4b/	8ff#\L	.	.	.	.	8f#\	-ge-	.	.	.	.
.	.	.	16gg#\L	.	.	.	.	16g#\	-ni	.	.	.	.
.	.	.	16aa\JJ	.	.	.	.	16a\	e	.	.	.	.
8r	.	8r	8bb\L	.	.	.	.	8b\	im-	.	.	.	.
8B\	.	8f#/	8dd#X\J	.	.	.	.	8d#X\	-pro-	.	.	.	.
!	!	!	!LO:LB:g=original	!	!	!	!	!LO:LB:g=original	!	!	!	!	!
=22	=22	=22	=22	=22	=22	=22	=22	=22	=22	=22	=22	=22	=22
8.c#\L	3	4e/	8ee\L	.	.	.	.	16e\	-ge-	.	.	.	.
.	.	.	.	.	.	.	.	16d\	-ni-	.	.	.	.
.	.	.	16dd\L	.	.	.	.	8e\	-es	.	.	.	.
16B\K	.	.	[16ee\JJ	.	.	.	.	.	.	.	.	.	.
8c#\	.	4r	8ee\L]	.	.	.	.	8r	.	.	.	.	.
8G#\J	.	.	8bb\J	.	.	.	.	8b\	si-	.	.	.	.
!LO:TX:a:t=P:problem:mixed beam	!	!	!	!	!	!	!	!	!	!	!	!	!
8E\L	.	2r	8gg#\L	.	.	.	.	8g#\	-men-	.	.	.	.
8A\	.	.	16ff#\L	.	.	.	.	16f#\	-ti-	.	.	.	.
.	.	.	16ee\JJ	.	.	.	.	16e\	-bus	.	.	.	.
8B\	#	.	8.dd#Xt\L	.	.	.	.	8.d#X\L	e-	.	.	.	.
8BB/J	.	.	.	.	.	.	.	.	.	.	.	.	.
.	.	.	16ee\Jk	.	.	.	.	16e\Jk	.	.	.	.	.
!	!	!LO:LB:g=original	!	!	!	!	!	!	!	!	!	!	!
=23	=23	=23	=23	=23	=23	=23	=23	=23	=23	=23	=23	=23	=23
4E\	.	(16g#/LL	16ee\LL	.	.	.	.	4e\	-um	.	.	.	.
.	.	16f#/	16a\	.	.	.	.	.	.	.	.	.	.
.	.	16f#/	16a\	.	.	.	.	.	.	.	.	.	.
.	.	16e/JJ)	16g#\JJ	.	.	.	.	.	.	.	.	.	.
8r	.	16e/LL	16g#/LL	.	.	.	.	4r	.	.	.	.	.
.	.	16a/	16cc#/	.	.	.	.	.	.	.	.	.	.
8E\	.	16a/	16cc#/	.	.	.	.	.	.	.	.	.	.
.	.	16g#/JJ	16b/JJ	.	.	.	.	.	.	.	.	.	.
!LO:TX:a:t=P:problem:mixed beam	!	!	!	!	!	!	!	!	!	!	!	!	!
8E\L	.	16g#/LL	16b/LL	.	.	.	.	2r	.	.	.	.	.
.	.	16e/	16g#/	.	.	.	.	.	.	.	.	.	.
8A\	.	16f#/	16a/	.	.	.	.	.	.	.	.	.	.
.	.	16e/JJ	16g#/JJ	.	.	.	.	.	.	.	.	.	.
8B\	#	8.d#X/L	8.f#/L	.	.	.	.	.	.	.	.	.	.
8BB/J	.	.	.	.	.	.	.	.	.	.	.	.	.
.	.	16d#/Jk	16f#/Jk	.	.	.	.	.	.	.	.	.	.
=24	=24	=24	=24	=24	=24	=24	=24	=24	=24	=24	=24	=24	=24
4E\	.	4e/	4e/	8r	.	00r	.	00r	.	00r	.	00r	00r
.	.	.	.	8E\	Fe-	.	.	.	.	.	.	.	.
8r	.	4r	4r	8G#\	-cit	.	.	.	.	.	.	.	.
8Dn\	.	.	.	8E\	po-	.	.	.	.	.	.	.	.
!LO:LB:g=original	!	!	!	!	!	!	!	!	!	!	!	!	!
8C#/L	7	2r	8ee\L	8G#\	-ten-	.	.	.	.	.	.	.	.
8BB/	6	.	8dd\	8G#\	-ti-	.	.	.	.	.	.	.	.
8C#/	.	.	8ee\	8G#\	-am	.	.	.	.	.	.	.	.
8AA/J	.	.	8cc#\J	8c#\	in	.	.	.	.	.	.	.	.
!	!	!	!LO:LB:g=original	!	!	!	!	!	!	!	!	!	!
=25	=25	=25	=25	=25	=25	=25	=25	=25	=25	=25	=25	=25	=25
4D\	76	0r	4ff#\	8c#\	bra-	.	.	.	.	.	.	.	.
!	!	!	!	!LO:LB:g=original	!	!	!	!	!	!	!	!	!
.	.	.	.	16B\	-chi-	.	.	.	.	.	.	.	.
.	.	.	.	16A\	-o	.	.	.	.	.	.	.	.
!LO:TX:a:t=P:problem:mixed beam	!	!	!	!	!	!	!	!	!	!	!	!	!
8E\L	.	.	4r	8.G#\L	su-	.	.	.	.	.	.	.	.
8EE/J	.	.	.	.	.	.	.	.	.	.	.	.	.
.	.	.	.	16A\Jk	.	.	.	.	.	.	.	.	.
4AA/	.	.	16r	4A\	-o	.	.	.	.	.	.	.	.
.	.	.	16cc#\LL	.	.	.	.	.	.	.	.	.	.
.	.	.	16ee\	.	.	.	.	.	.	.	.	.	.
.	.	.	16gg#\JJ	.	.	.	.	.	.	.	.	.	.
8r	.	.	8aa\L	8r	.	.	.	.	.	.	.	.	.
8C#/	6	.	8ee\J	8E\	dis-	.	.	.	.	.	.	.	.
=26	=26	=26	=26	=26	=26	=26	=26	=26	=26	=26	=26	=26	=26
8C#/L	.	.	8ee\L	8E\L	-per-	.	.	.	.	.	.	.	.
8BB/	6	.	8dd\	16F#\L	.	.	.	.	.	.	.	.	.
.	.	.	.	16G#\JJ	.	.	.	.	.	.	.	.	.
8AA/	.	.	8cc#\	8A\	-sit	.	.	.	.	.	.	.	.
8C#/J	.	.	8dd\J	8E\	su-	.	.	.	.	.	.	.	.
8D/L	.	.	4a/	8F#\	-per-	.	.	.	.	.	.	.	.
8C#/	.	.	.	8A\	-bos	.	.	.	.	.	.	.	.
8BB/	6	.	4r	16d\LL	men-	.	.	.	.	.	.	.	.
.	.	.	.	16c#\JJ	.	.	.	.	.	.	.	.	.
8D/J	5	.	.	16B\LL	-te	.	.	.	.	.	.	.	.
.	.	.	.	16A\JJ	.	.	.	.	.	.	.	.	.
=27	=27	=27	=27	=27	=27	=27	=27	=27	=27	=27	=27	=27	=27
8E\L	.	2r	2r	8G#\	cor-	.	.	.	.	.	.	.	.
16C#\L	.	.	.	16A\LL	-dis	.	.	.	.	.	.	.	.
16D\JJ	.	.	.	16B\JJ	.	.	.	.	.	.	.	.	.
!LO:TX:a:t=P:problem:mixed beam	!	!	!	!	!	!	!	!	!	!	!	!	!
8E\L	6 4	.	.	8c#\L	su-	.	.	.	.	.	.	.	.
8EE/J	3	.	.	16B\L	.	.	.	.	.	.	.	.	.
.	.	.	.	16A\JJ	.	.	.	.	.	.	.	.	.
4AA/	.	(16cc#\LL	16ee\LL	4A\	-i	.	.	.	.	.	.	.	.
.	.	16b\	16dd\	.	.	.	.	.	.	.	.	.	.
.	.	16b\	16dd\	.	.	.	.	.	.	.	.	.	.
.	.	16a\JJ)	16cc#\JJ	.	.	.	.	.	.	.	.	.	.
8r	.	(16a\LL	16cc#\LL	4r	.	.	.	.	.	.	.	.	.
.	.	16dd\	16ff#\	.	.	.	.	.	.	.	.	.	.
8A\	.	16dd\	16ff#\	.	.	.	.	.	.	.	.	.	.
.	.	16cc#\JJ)	16ee\JJ	.	.	.	.	.	.	.	.	.	.
!LO:LB:g=original	!	!	!	!LO:LB:g=original	!	!	!	!	!	!	!	!	!
=28	=28	=28	=28	=28	=28	=28	=28	=28	=28	=28	=28	=28	=28
4A\	.	16cc#\LL	16ee\LL	00r	.	1r	.	00r	.	1r	.	00r	00r
.	.	16b\	16dd\	.	.	.	.	.	.	.	.	.	.
.	.	16b\	16dd\	.	.	.	.	.	.	.	.	.	.
.	.	16a\JJ	16cc#\JJ	.	.	.	.	.	.	.	.	.	.
!	!	!LO:LB:g=original	!	!	!	!	!	!	!	!	!	!	!
8r	.	16a\LL	16cc#\LL	.	.	.	.	.	.	.	.	.	.
.	.	16dd\	16ff#\	.	.	.	.	.	.	.	.	.	.
8A\	.	16dd\	16ff#\	.	.	.	.	.	.	.	.	.	.
.	.	16cc#\JJ	16ee\JJ	.	.	.	.	.	.	.	.	.	.
!LO:TX:a:t=P:problem:mixed beam	!	!LO:TX:a:t=P:problem:mixed beam	!LO:LB:g=original	!	!	!	!	!	!	!	!	!	!
8A\L	.	16cc#\LL	16ee\LL	.	.	.	.	.	.	.	.	.	.
.	.	16e/	16cc#\	.	.	.	.	.	.	.	.	.	.
8D\	.	16d/	16b\	.	.	.	.	.	.	.	.	.	.
.	.	16c#/JJ	16a\JJ	.	.	.	.	.	.	.	.	.	.
8E\	.	8.B/L	8.g#t/L	.	.	.	.	.	.	.	.	.	.
8EEJ	.	.	.	.	.	.	.	.	.	.	.	.	.
.	.	16B/Jk	16a/Jk	.	.	.	.	.	.	.	.	.	.
=29	=29	=29	=29	=29	=29	=29	=29	=29	=29	=29	=29	=29	=29
4AA/	.	4c#/	4a/	.	.	4c#\	de	.	.	4ee\	De-	.	.
8r	.	4r	4r	.	.	16d\	po-	.	.	16ff#\	-po-	.	.
.	.	.	.	.	.	16d\	-su-	.	.	16ee\	-su-	.	.
8E\	.	.	.	.	.	16d\	-it	.	.	16ff#\	-it	.	.
.	.	.	.	.	.	16B\	po-	.	.	16dd\	po-	.	.
8AA/L	.	2r	2r	.	.	8c#\	-ten-	.	.	8ee\	-ten-	.	.
!	!	!	!	!	!	!	!	!	!	!LO:LB:g=original	!	!	!
16AA/L	.	.	.	.	.	8A\	-tes	.	.	8a\	-tes	.	.
16BB/JJ	.	.	.	.	.	.	.	.	.	.	.	.	.
8C#/L	.	.	.	.	.	8r	.	.	.	8r	.	.	.
8AA/J	.	.	.	.	.	8B\	de	.	.	8a\	de	.	.
=30	=30	=30	=30	=30	=30	=30	=30	=30	=30	=30	=30	=30	=30
8E\L	.	00r	00r	.	.	8G#\L	se-	.	.	8b\L	se-	.	.
8C#\	.	.	.	.	.	8A\J	.	.	.	8cc#\J	.	.	.
8BB\	.	.	.	.	.	4B\	.	.	.	4dd\	-de	.	.
8E\J	.	.	.	.	.	.	.	.	.	.	.	.	.
8AA/L	.	.	.	.	.	4A\	-de	.	.	4cc#\	.	.	.
8BB/	.	.	.	.	.	.	.	.	.	.	.	.	.
8C#/	.	.	.	.	.	8r	.	.	.	8r	.	.	.
8AA/J	.	.	.	.	.	8A/	et	.	.	8cc#\	et	.	.
!	!	!	!	!	!	!LO:LB:g=original	!	!	!	!	!	!	!
=31	=31	=31	=31	=31	=31	=31	=31	=31	=31	=31	=31	=31	=31
4AA/	.	.	.	.	.	8A\	e-	.	.	8cc#\	e-	.	.
.	.	.	.	.	.	8c#\	-xal-	.	.	8ee\	-xal-	.	.
8r	.	.	.	.	.	8c#\	-ta-	.	.	8ee\	-ta-	.	.
8A\	.	.	.	.	.	8A\	-vit	.	.	8cc#\	-vit	.	.
8D\L	.	.	.	.	.	8d\	hu-	.	.	8ff#\	hu-	.	.
16D\L	.	.	.	.	.	16d\	-mi-	.	.	16ff#\	-mi-	.	.
16E\JJ	.	.	.	.	.	16d\	-les	.	.	16ff#\	-les	.	.
!LO:LB:g=original	!	!	!	!	!	!	!	!	!	!	!	!	!
8F#\L	.	.	.	.	.	8r	.	.	.	8r	.	.	.
8G#\J	.	.	.	.	.	16B\	e-	.	.	16ee\	e-	.	.
.	.	.	.	.	.	16B\	-xal-	.	.	16dd\	-xal-	.	.
!	!	!	!	!	!	!	!	!	!	!LO:LB:g=original	!	!	!
=32	=32	=32	=32	=32	=32	=32	=32	=32	=32	=32	=32	=32	=32
!LO:TX:a:t=P:problem:mixed beam	!	!	!	!	!	!	!	!	!	!	!	!	!
8A\L	.	.	.	00r	.	8A\	-ta-	1r	.	8cc#\	-ta-	00r	00r
8D\	.	.	.	.	.	8A\	-vit	.	.	8b\	-vit	.	.
8E\	4	.	.	.	.	8.A\	hu-	.	.	8.b\	hu-	.	.
8EE/J	3	.	.	.	.	.	.	.	.	.	.	.	.
.	.	.	.	.	.	16G#\	-mi-	.	.	16a\	-mi-	.	.
8AA/L	.	.	.	.	.	4A\	-les	.	.	4a\	-les	.	.
16AA/L	.	.	.	.	.	.	.	.	.	.	.	.	.
16BB/JJ	.	.	.	.	.	.	.	.	.	.	.	.	.
8C#/L	.	.	.	.	.	8r	.	.	.	4r	.	.	.
8C#/J	.	.	.	.	.	16A\LL	e	.	.	.	.	.	.
.	.	.	.	.	.	16B\JJ	.	.	.	.	.	.	.
!	!	!	!	!	!	!LO:LB:g=original	!	!	!	!	!	!	!
=33	=33	=33	=33	=33	=33	=33	=33	=33	=33	=33	=33	=33	=33
8AA/L	.	.	.	.	.	(8c#\L	su-	2r	.	00r	.	.	.
8BB/	.	.	.	.	.	8d\J)	.	.	.	.	.	.	.
8C#/	.	.	.	.	.	(8e\L	-ri-	.	.	.	.	.	.
8D/J	.	.	.	.	.	8f#\J)	.	.	.	.	.	.	.
8.C#/L	.	.	.	.	.	8e\	-en-	4r	.	.	.	.	.
.	.	.	.	.	.	8A/	-tes	.	.	.	.	.	.
16BB/K	.	.	.	.	.	.	.	.	.	.	.	.	.
8C#/	.	.	.	.	.	8r	.	8r	.	.	.	.	.
8AA/J	.	.	.	.	.	8A/	im-	8a\	im-	.	.	.	.
=34	=34	=34	=34	=34	=34	=34	=34	=34	=34	=34	=34	=34	=34
8E\L	.	0r	0r	.	.	8B\	-ple-	8g#\	-ple-	.	.	.	.
8C#\	.	.	.	.	.	8c#\	-vit	8a\	-vit	.	.	.	.
8BB\	7	.	.	.	.	4d\	bo-	8a\L	bo-	.	.	.	.
8E\J	7	.	.	.	.	.	.	8g#\J	.	.	.	.	.
!	!	!	!	!	!	!	!	!LO:LB:g=original	!	!	!	!	!
8AA/L	.	.	.	.	.	4c#\	-nis	4a\	-nis	.	.	.	.
8BB/	.	.	.	.	.	.	.	.	.	.	.	.	.
8C#/	.	.	.	.	.	8r	.	8r	.	.	.	.	.
8AA/J	.	.	.	.	.	16c#\LL	et	8a\	et	.	.	.	.
.	.	.	.	.	.	16d\JJ	.	.	.	.	.	.	.
!LO:LB:g=original	!	!	!	!	!	!	!	!	!	!	!	!	!
=35	=35	=35	=35	=35	=35	=35	=35	=35	=35	=35	=35	=35	=35
8C#\L	.	.	.	.	.	8.e\	di-	8.a\	di-	.	.	.	.
8C#\	.	.	.	.	.	.	.	.	.	.	.	.	.
.	.	.	.	.	.	16A/	-vi-	16a\	-vi-	.	.	.	.
8D\	.	.	.	.	.	8.f#\	-tes	8.a\	-tes	.	.	.	.
8D\J	.	.	.	.	.	.	.	.	.	.	.	.	.
.	.	.	.	.	.	16d\	di-	16a\	di-	.	.	.	.
8C#/L	.	.	.	.	.	8e\	-mi-	8a\	-mi-	.	.	.	.
16C#/L	.	.	.	.	.	8A/	-sit	8a\	-sit	.	.	.	.
16BB/JJ	.	.	.	.	.	.	.	.	.	.	.	.	.
!	!	!	!	!	!	!LO:LB:g=original	!	!	!	!	!	!	!
8AA/L	.	.	.	.	.	8r	.	8r	.	.	.	.	.
8C#/J	.	.	.	.	.	8A/	i-	8a\	i-	.	.	.	.
=36	=36	=36	=36	=36	=36	=36	=36	=36	=36	=36	=36	=36	=36
8D#X\L	65:	2r	2r	00r	.	2A\	-na-	2f#\	-na-	.	.	00r	00r
8D#\	:	.	.	.	.	.	.	.	.	.	.	.	.
8D#\	.	.	.	.	.	.	.	.	.	.	.	.	.
8D#\J	.	.	.	.	.	.	.	.	.	.	.	.	.
4E\	.	4r	4r	.	.	8G#/	-nes	4e\	-nes	.	.	.	.
.	.	.	.	.	.	8B\	ſu-	.	.	.	.	.	.
8r	.	8r	8r	.	.	8c#\	-sce-	4r	.	.	.	.	.
8D#\	4 2	8b\	8b\	.	.	8d\	-nit	.	.	.	.	.	.
=37	=37	=37	=37	=37	=37	=37	=37	=37	=37	=37	=37	=37	=37
!	!	!	!	!	!	!	!	!LO:TX:a:t=3	!	!	!	!	!
8C#/L	6	8cc#\L	8cc#\L	.	.	8e\	I-	0r	.	0r	.	.	.
8AA/	.	16dd\L	16dd\L	.	.	16f#\	-sra-	.	.	.	.	.	.
.	.	16cc#\JJ	16cc#\JJ	.	.	16e\	-el	.	.	.	.	.	.
8BB/	7	8b\L	8b\L	.	.	8d\	pu-	.	.	.	.	.	.
8E/J	7	16cc#\L	16cc#\L	.	.	16e\	-e-	.	.	.	.	.	.
.	.	16b\JJ	16b\JJ	.	.	16d\	-rum	.	.	.	.	.	.
4AA/	.	8a\L	8a\L	.	.	8c#\	su-	.	.	.	.	.	.
.	.	8a\	8a\	.	.	8c#\	-um	.	.	.	.	.	.
8r	.	8cc#\	8cc#\	.	.	8f#\	re-	.	.	.	.	.	.
8AA/	6	8cc#\J	8cc#\J	.	.	8c#\	-cor-	.	.	.	.	.	.
!	!	!LO:LB:g=original	!	!	!	!LO:LB:g=original	!	!	!	!	!	!	!
=38	=38	=38	=38	=38	=38	=38	=38	=38	=38	=38	=38	=38	=38
8BB/L	6	8f#/L	8f#/L	.	.	8d\	-da-	.	.	.	.	.	.
8BB/	3	8f#/J	8f#/J	.	.	8B\	-tus	.	.	.	.	.	.
!	!	!	!LO:LB:g=original	!	!	!	!	!	!	!	!	!	!
8GG#/	6	8b\L	8b\L	.	.	8e\	re-	.	.	.	.	.	.
8GG#/J	.	8b\	8b\	.	.	8B\	-cor-	.	.	.	.	.	.
!LO:LB:g=original	!	!	!	!	!	!	!	!	!	!	!	!	!
8AA/L	.	8a\	8a\	.	.	8c#\	-da-	.	.	.	.	.	.
16AA/L	.	8a\J	8a\J	.	.	8A\	-tus	.	.	.	.	.	.
16BB/JJ	.	.	.	.	.	.	.	.	.	.	.	.	.
8C#/L	.	8r	8r	.	.	8r	.	.	.	.	.	.	.
8AA/J	.	8cc#\	8cc#\	.	.	8e\	mi-	.	.	.	.	.	.
=39	=39	=39	=39	=39	=39	=39	=39	=39	=39	=39	=39	=39	=39
8G#\L	6	8b/L	8b/L	.	.	4e\	-se-	1r	.	1r	.	.	.
8E\	.	8g#/	8g#/	.	.	.	.	.	.	.	.	.	.
8F#\	.	8a/	8a/	.	.	4e\	-ri	.	.	.	.	.	.
8G#\J	.	8b/J	8b/J	.	.	.	.	.	.	.	.	.	.
8A\L	.	8cc#\L	8cc#\L	.	.	4.e\	cor-	.	.	.	.	.	.
8c#\	.	8ee\	8ee\	.	.	.	.	.	.	.	.	.	.
8G#\	6	8b\	8b\	.	.	.	.	.	.	.	.	.	.
8E\J	.	8a\J	8a\J	.	.	(8d\	-di-	.	.	.	.	.	.
=40	=40	=40	=40	=40	=40	=40	=40	=40	=40	=40	=40	=40	=40
!LO:TX:a:t=P:problem:mixed beam	!	!	!	!	!	!	!	!	!	!	!	!	!
8A\L	.	4a/	4a/	2r	.	8c#\)	.	2r	.	2r	.	2r	2r
8D\	.	.	.	.	.	16B\	.	.	.	.	.	.	.
.	.	.	.	.	.	16B\	-ae	.	.	.	.	.	.
8E\	.	4r	4r	.	.	4B\	su-	.	.	.	.	.	.
8EE/J	.	.	.	.	.	.	.	.	.	.	.	.	.
4AA/	.	4r	4r	4r	.	4A\	-ae	4r	.	4r	.	4r	4r
8r	.	8r	8r	8r	.	8r	.	8r	.	8r	.	8r	8r
8A\	.	8cc#\	8ee\	8A\	Si-	8A\	Si-	8e\	ſi-	8cc#\	Si-	8a\	8cc#\
!	!	!	!	!	!	!LO:LB:g=original	!	!	!	!	!	!	!
=41	=41	=41	=41	=41	=41	=41	=41	=41	=41	=41	=41	=41	=41
!LO:TX:a:t=T	!	!	!	!	!	!	!	!	!	!	!	!	!
8D\L	.	16cc#\LL	16ff#\LL	8D/	-cut	8A\	-cut	8f#\	-cut	8dd\	-cut	4b\	4dd\
.	.	16a\	16ff#\	.	.	.	.	.	.	.	.	.	.
8D\	.	16a\	16ff#\	8D/	lo-	8A\	lo-	8f#\	lo-	8dd\	lo-	.	.
.	.	16a\JJ	16ff#\JJ	.	.	.	.	.	.	.	.	.	.
!	!	!	!LO:TX:a:t=P:problem:mixed beam	!	!	!	!	!	!	!	!	!	!
8D\	.	16a/LL	16ff#\LL	8D/	-cu-	8A\	-cu-	8f#\	-cu-	8dd\	-cu-	4b\	4dd\
.	.	16a/	16d/	.	.	.	.	.	.	.	.	.	.
8D\J	.	16a/	16d/	8D/	-tus	8A\	-tus	8f#\	-tus	8dd\	-tus	.	.
.	.	16a/JJ	16ff#\JJ	.	.	.	.	.	.	.	.	.	.
!LO:TX:a:t=P:problem:mixed beam	!	!	!	!	!	!	!	!	!	!	!	!	!
8A\L	.	16cc#\LL	16ee\LL	8A\	est	8A\	est	8e\	e(st)	8cc#\	est	8a\L	8cc#\L
.	.	16cc#\	16ee\	.	.	.	.	.	.	.	.	.	.
8AA/	.	16cc#\	16ee\	8AA/	ad	8A\	ad	8e\	ad	8cc#\	ad	8a\	8cc#\
.	.	16cc#\JJ	16ee\JJ	.	.	.	.	.	.	.	.	.	.
!	!	!LO:PB:g=original	!LO:LB:g=original	!	!	!	!	!	!	!	!	!	!
8C#/	.	16cc#\LL	16a\LL	8C#/	Pa-	8A\	Pa-	8e\	Pa-	8ee\	Pa-	8cc#\	8ee\
.	.	16cc#\	16ee\	.	.	.	.	.	.	.	.	.	.
8AA/J	.	16cc#\	16ee\	8AA/	-tres	8A\	-tres	8e\	-tres	8cc#\	-tres	8a\J	8cc#\J
.	.	16cc#\JJ	16ee\JJ	.	.	.	.	.	.	.	.	.	.
!	!	!	!	!	!	!	!	!	!	!LO:LB:g=original	!	!	!
=42	=42	=42	=42	=42	=42	=42	=42	=42	=42	=42	=42	=42	=42
8D\L	.	16a/LL	16ff#\LL	8D/	nos-	8A\	nos-	8f#\	nos-	8dd\	no-	4b\	4dd\
.	.	16a/	16ff#\	.	.	.	.	.	.	.	.	.	.
8D\	.	16a/	16ff#\	8D/	-tros	8A\	-tros	8f#\	-tros	8dd\	-stros	.	.
.	.	16a/JJ	16ff#\JJ	.	.	.	.	.	.	.	.	.	.
!	!	!	!LO:TX:a:t=P:problem:mixed beam	!	!	!	!	!LO:LB:g=original	!	!	!	!	!
8D\	.	16a/LL	16ff#\LL	8D/	A-	8A\	a-	8f#\	a-	8dd\	a-	4b\	4dd\
.	.	16a/	16d/	.	.	.	.	.	.	.	.	.	.
8D\J	.	16a/	16d/	8D/	-bra-	8A\	-bra-	8f#\	-bra-	8dd\	-bra-	.	.
.	.	16a/JJ	16ff#\JJ	.	.	.	.	.	.	.	.	.	.
!LO:LB:g=original	!	!	!	!LO:LB:g=original	!	!	!	!	!	!	!	!	!
8A\L	.	16cc#\LL	16ee\LL	8A\	-ham	8A\	-ham	8e\	-ham	8cc#\	-ham	4a\	4cc#\
.	.	16cc#\	16ee\	.	.	.	.	.	.	.	.	.	.
8A\	.	16cc#\	16ee\	8A\	et	8A\	et	8e\	et	8cc#\	et	.	.
.	.	16cc#\JJ	16ee\JJ	.	.	.	.	.	.	.	.	.	.
8c#\	.	16ee\LL	16ee\LL	8c#\	se-	8A\	se-	8e\	re-	8ee\	se-	4cc#\	4ee\
.	.	16ee\	16a\	.	.	.	.	.	.	.	.	.	.
8A\J	.	16cc#\	16a\	16A\	-mi-	16c#\	-mi-	16a\	-mi-	16ee\	-mi-	.	.
.	.	16cc#\JJ	16ee\JJ	16A\	-ni	16c#\	-ni	16a\	-ni	16ee\	-ni	.	.
!	!	!	!	!	!	!LO:LB:g=original	!	!	!	!	!	!	!
=43	=43	=43	=43	=43	=43	=43	=43	=43	=43	=43	=43	=43	=43
8B\L	-	16cc#\LL	16ee\LL	(8B\L	e-	4d\	e-	4f#\	e-	4dd\	e-	4b\	4dd\
.	.	16b\	16ee\	.	.	.	.	.	.	.	.	.	.
8A\	.	16b\	16ee\	8A\J)	.	.	.	.	.	.	.	.	.
.	.	16b\JJ	16ee\JJ	.	.	.	.	.	.	.	.	.	.
8G#\	.	16b\LL	16ee\LL	8G#\	-jus	8B\	-jus	8f#\	-jus	8dd\	-juz	4b\	4dd\
.	.	16b\	16ee\	.	.	.	.	.	.	.	.	.	.
8E\J	.	16b\	16ee\	8E\	in	8B\	in	8f#\	in	8dd\	in	.	.
.	.	16b\JJ	16ee\JJ	.	.	.	.	.	.	.	.	.	.
!LO:TX:a:t=P:problem:mixed beam	!	!	!	!	!	!	!	!	!	!	!	!	!
8A\L	.	8a\L	8cc#\L	8A\	sae-	4.A\	sae-	8e\L	sae-	8cc#\L	sae-	4a\	4cc#\
8D\	.	8b\	8aa\	8D\	.	.	.	8f#\J	.	8cc#\J	.	.	.
8E\	.	8.b\	8.aa\	8.E\	.	.	.	8.e\	.	8.b\	.	8.e/L	8.b\L
8EE/J	.	.	.	.	.	8G#/	-cu-	.	.	.	.	.	.
.	.	16b\Jk	16gg#\Jk	16E\	-cu-	.	.	16e\	-cu-	16a\	-cu-	16c#/Jk	16a\Jk
=44	=44	=44	=44	=44	=44	=44	=44	=44	=44	=44	=44	=44	=44
*	*	*	*	*	*	*	*	*	*	*	*	*	*2\right
1AA	.	2cc#\	2aa\	2AA/	-la.	2A\	-la	2e\	-la	2a\	-la	2c#/	2a\
!	!	!LO:TX:a:t=Gloria Tacet	!LO:TX:a:t=Gloria Tacet	!LO:TX:a:t=Gloria Tacet	!	!	!	!	!	!LO:TX:a:t=Gloria Tacet	!	!LO:TX:a:t=Gloria Tacet	!LO:TX:a:t=Gloria Tacet
.	.	2r	2r	2r	.	2r	.	2r	.	2r	.	2r	2r
!	!	!	!LO:LB:g=original	!LO:LB:g=original	!	!LO:PB:g=original	!	!	!	!	!	!LO:LB:g=original	!LO:LB:g=original
=45||	=45||	=45||	=45||	=45||	=45||	=45||	=45||	=45||	=45||	=45||	=45||	=45||	=45||
*M3/4	*	*M3/4	*M3/4	*M3/4	*	*M3/4	*	*M3/4	*	*M3/4	*	*M3/4	*M3/4
!LO:TX:a:t=ada(gio)	!	!	!	!	!	!	!	!	!	!	!	!	!
!LO:TX:b:t=Gloria	!	!	!	!	!	!	!	!	!	!	!	!	!
4D\	.	2.ryy	2.ryy	2.ryy	.	4A\	Glo-	4f#\	Glo-	2.ryy	.	2.ryy	2.ryy
4Gn\	.	.	.	.	.	4B\	-ri-	4gn\	-ri-	.	.	.	.
4A\	.	.	.	.	.	8A\L	-a	4f#\	-a	.	.	.	.
.	.	.	.	.	.	8Gn\J	.	.	.	.	.	.	.
=46	=46	=46	=46	=46	=46	=46	=46	=46	=46	=46	=46	=46	=46
4D\	.	2.ryy	2.ryy	2.ryy	.	8A/L	Pa-	8f#\L	Pa-	2.ryy	.	2.ryy	2.ryy
.	.	.	.	.	.	8Gn/J	.	8e\J	.	.	.	.	.
4D\	.	.	.	.	.	4A/	-tri	4f#\	-tri	.	.	.	.
4D\	.	.	.	.	.	4r	.	4r	.	.	.	.	.
=47	=47	=47	=47	=47	=47	=47	=47	=47	=47	=47	=47	=47	=47
4D\	.	2.ryy	2.ryy	2.ryy	.	8d\L	Glo-	8f#\L	glo-	2.ryy	.	2.ryy	2.ryy
.	.	.	.	.	.	8f#\J	.	8a\J	.	.	.	.	.
!	!	!	!	!	!	!	!	!LO:LB:g=original	!	!	!	!	!
4r	.	.	.	.	.	8e\L	.	8gn\L	.	.	.	.	.
.	.	.	.	.	.	8d\J	.	8f#\J	.	.	.	.	.
4Gn\	.	.	.	.	.	8e\L	-ri-	8e\L	-ri-	.	.	.	.
.	.	.	.	.	.	8d\J	-a	8d\J	-a	.	.	.	.
=48	=48	=48	=48	=48	=48	=48	=48	=48	=48	=48	=48	=48	=48
4A\	.	2.ryy	2.ryy	2.ryy	.	8c#\	Fi-	8e\	Fi-	2.ryy	.	2.ryy	2.ryy
.	.	.	.	.	.	8c#\	-li-	8e\	-li-	.	.	.	.
4A\	.	.	.	.	.	4A\	-o	4e\	-o	.	.	.	.
4A\	.	.	.	.	.	4r	.	4r	.	.	.	.	.
!LO:LB:g=original	!	!	!	!	!	!LO:LB:g=original	!	!	!	!	!	!	!
=49	=49	=49	=49	=49	=49	=49	=49	=49	=49	=49	=49	=49	=49
4D\	.	2.ryy	2.ryy	2.ryy	.	4r	.	4r	.	2.ryy	.	2.ryy	2.ryy
4r	.	.	.	.	.	4d\	et	4f#\	et	.	.	.	.
4A\	.	.	.	.	.	4e\	Spi-	4gn\	Spi-	.	.	.	.
=50	=50	=50	=50	=50	=50	=50	=50	=50	=50	=50	=50	=50	=50
4D\	.	2.ryy	2.ryy	2.ryy	.	4.f#\	-ri-	4.a\	-ri-	2.ryy	.	2.ryy	2.ryy
4r	.	.	.	.	.	.	.	.	.	.	.	.	.
.	.	.	.	.	.	8e\	-tu-	8gn\	-tu	.	.	.	.
4A\	.	.	.	.	.	4d\	-i	4f#\	i	.	.	.	.
=51	=51	=51	=51	=51	=51	=51	=51	=51	=51	=51	=51	=51	=51
4D\	.	2.ryy	2.ryy	2.ryy	.	8e\L	San-	8gn\L	San-	2.ryy	.	2.ryy	2.ryy
.	.	.	.	.	.	8d\J	.	8f#\J	.	.	.	.	.
4ryy	.	.	.	.	.	2c#\	.	2e\	.	.	.	.	.
4A\yy	.	.	.	.	.	.	.	.	.	.	.	.	.
=52	=52	=52	=52	=52	=52	=52	=52	=52	=52	=52	=52	=52	=52
2.D\	.	2.ryy	2.ryy	2.ryy	.	2d\	-cto	2.f#\	-cto	2.ryy	.	2.ryy	2.ryy
.	.	.	.	.	.	4r	.	.	.	.	.	.	.
!	!	!	!	!	!	!LO:LB:g=original	!	!	!	!	!	!	!
=53||	=53||	=53||	=53||	=53||	=53||	=53||	=53||	=53||	=53||	=53||	=53||	=53||	=53||
*M2/2	*	*M2/2	*M2/2	*M2/2	*	*M2/2	*	*M2/2	*	*M2/2	*	*M2/2	*M2/2
*met(c|)	*	*met(c|)	*met(c|)	*met(c|)	*	*met(c|)	*	*met(c|)	*	*met(c|)	*	*met(c|)	*met(c|)
!	!	!LO:N:vis=16	!LO:TX:b:t=Sicut erat	!	!	!	!	!	!	!	!	!LO:TX:b:t=Sicut erat	!LO:TX:b:t=Sicut erat
4AA/	.	8cc#/L	8a/L	4AA/	Si-	2A\	Si-	2.e\	Si-	(4cc#\	Si-	4a\	4cc#\
!	!	!LO:N:vis=16	!	!	!	!	!	!	!	!	!	!	!
.	.	8e/	8e/	.	.	.	.	.	.	.	.	.	.
!	!	!LO:N:vis=16	!	!	!	!	!	!	!	!	!	!	!
4BB/	.	8e/	8e/	4BB/	.	.	.	.	.	4dd\)	.	4b\	4dd\
!	!	!LO:N:vis=16	!	!	!	!	!	!	!	!	!	!	!
.	.	8e/J	8e/J	.	.	.	.	.	.	.	.	.	.
4C#/	.	8e/L	8e/L	4C#/	-cut	4A\	.	.	.	(4ee\	-cut	4cc#\	4ee\
.	.	8a/	8a/	.	.	.	.	.	.	.	.	.	.
4AA/	.	8b/	8b/	4AA/	.	4e\	-cut	4f#\	-cut	4cc#\)	.	4a\	4cc#\
.	.	8cc#/J	8cc#/J	.	.	.	.	.	.	.	.	.	.
=54	=54	=54	=54	=54	=54	=54	=54	=54	=54	=54	=54	=54	=54
4E\	.	8b/L	8b/L	4E\	e-	4e\	e-	4g#\	e-	4b\	e-	4e/	4b\
.	.	8e/	8e/	.	.	.	.	.	.	.	.	.	.
4F#\	.	8e/	8e/	4F#\	-rat	4e\	-rat	4a\	-rat	4b\	-rat	4e/	4b\
.	.	8e/J	8e/J	.	.	.	.	.	.	.	.	.	.
4G#\	.	8e/L	8e/L	4G#\	in	4e\	in	4b\	in	4ee\	in	4cc#\	4ee\
.	.	8b/	8b/	.	.	.	.	.	.	.	.	.	.
4E\	.	8cc#/	8cc#/	4E\	prin-	4e\	prin-	4g#\	prin-	4dd\	prin-	4b\	4dd\
.	.	8dd/J	8dd/J	.	.	.	.	.	.	.	.	.	.
=55	=55	=55	=55	=55	=55	=55	=55	=55	=55	=55	=55	=55	=55
!	!	!	!LO:TX:a:t=P:problem:mixed beam	!	!	!	!	!	!	!	!	!	!
4A\	.	8cc#/L	8cc#\L	4A\	-ci-	(2e\	-ci-	2.e\	-ci-	(4cc#\	-ci-	4a\	4cc#\
.	.	8e/	8e/	.	.	.	.	.	.	.	.	.	.
4B\	.	8e/	8e/	4B\	-pi-	.	.	.	.	4dd\)	.	4b\	4dd\
.	.	8e/J	8e/J	.	.	.	.	.	.	.	.	.	.
!	!	!	!LO:TX:a:t=P:problem:mixed beam	!	!	!	!	!	!	!	!	!	!
4c#\	.	8e/L	8e/L	4c#\	-o	4A\)	.	.	.	(4ee\	-pi-	4cc#\	4ee\
.	.	8cc#/	8cc#\	.	.	.	.	.	.	.	.	.	.
4A\	.	8dd/	8dd\	4A\	.	4c#\	-pi-	4a\	-pi-	4cc#\)	.	4a\	4cc#\
.	.	8ee/J	8ee\J	.	.	.	.	.	.	.	.	.	.
!	!	!	!	!	!	!	!	!LO:LB:g=original	!	!	!	!	!
=56	=56	=56	=56	=56	=56	=56	=56	=56	=56	=56	=56	=56	=56
!	!	!LO:TX:a:t=P:problem:mixed beam	!LO:TX:a:t=P:problem:mixed beam	!	!	!	!	!	!	!	!	!	!
4B\	-	8dd\L	8dd\L	(4B\	et	4B\	-o	4f#\	-o	4dd\	-o	4b\	4dd\
.	.	8e/	8e/	.	.	.	.	.	.	.	.	.	.
4A\	.	8e/	8e/	4A\)	.	4B\	et	4f#\	et	4dd\	et	4b\	4dd\
.	.	8e/J	8e/J	.	.	.	.	.	.	.	.	.	.
!	!	!	!LO:LB:g=original	!	!	!	!	!	!	!	!	!	!
!	!	!LO:TX:a:t=P:problem:mixed beam	!LO:TX:a:t=P:problem:mixed beam	!	!	!	!	!	!	!	!	!	!
4G#\	6 5	8e/L	8e/L	(4G#\	nunc	4B\	nunc	4e\	nunc	4dd\	nunc	2b\	2dd\
.	.	8dd\	8dd\	.	.	.	.	.	.	.	.	.	.
4E\	.	8cc#\	8cc#\	4E\)	.	4B\	et	4e\	et	4dd\	et	.	.
.	.	8b/\J	8b\J	.	.	.	.	.	.	.	.	.	.
!LO:LB:g=original	!	!LO:LB:g=original	!	!	!	!	!	!	!	!	!	!	!
=57	=57	=57	=57	=57	=57	=57	=57	=57	=57	=57	=57	=57	=57
4A\	.	8cc#\L	8cc#\L	4A\	et	2.A\	sem-	2.e\	sem-	(4cc#\	sem-	4a\	4cc#\
.	.	8a\	8a\	.	.	.	.	.	.	.	.	.	.
4B\	.	8a\	8a\	4B\	sem-	.	.	.	.	4dd\)	.	4b\	4dd\
.	.	8a\J	8a\J	.	.	.	.	.	.	.	.	.	.
4c#\	.	8a\L	8a\L	(4c#\	-per	.	.	.	.	(4ee\	-per	4cc#\	4ee\
.	.	8ee\	8ee\	.	.	.	.	.	.	.	.	.	.
4A\	.	8ff#\	8ff#\	4A\)	.	4A\	-per	4e\	-per	4cc#\)	.	4a\	4cc#\
.	.	8gg#\J	8gg#\J	.	.	.	.	.	.	.	.	.	.
!	!	!	!	!LO:LB:g=original	!	!	!	!	!	!LO:LB:g=original	!	!	!
=58	=58	=58	=58	=58	=58	=58	=58	=58	=58	=58	=58	=58	=58
4D\	.	8ff#\L	8ff#\L	4D\	et	4A/	et	4f#\	et	4dd\	et	2b\	2dd\
.	.	8a\	8a\	.	.	.	.	.	.	.	.	.	.
4E\	.	8a\	8a\	4E\	in	4A/	in	4gn\	in	4dd\	in	.	.
.	.	8a\J	8a\J	.	.	.	.	.	.	.	.	.	.
4F#\	.	8a\L	8a\L	4F#\	sae-	4A/	sae-	4a\	sae-	4dd\	sae-	2b\	2dd\
.	.	8dd\	8dd\	.	.	.	.	.	.	.	.	.	.
4D\	.	8ee\	8ee\	8D/	-cu-	8A/	-cu-	8f#\	-cu-	8dd\	-cu-	.	.
.	.	8ff#\J	8ff#\J	8D/	-la	8A/	.	8f#\	-la	8dd\	-la	.	.
!	!	!	!	!	!	!LO:LB:g=original	!	!	!	!	!	!	!
=59	=59	=59	=59	=59	=59	=59	=59	=59	=59	=59	=59	=59	=59
4A\	.	8ee\L	8ee\L	(4A\	sae-	2.A\	-la	2.f#\	sae-	(4cc#\	sae-	4a\	4cc#\
.	.	8a\	8a\	.	.	.	.	.	.	.	.	.	.
4B\	.	8a\	8a\	4B\)	.	.	.	.	.	4dd\)	.	4b\	4dd\
.	.	8a\J	8a\J	.	.	.	.	.	.	.	.	.	.
4c#\	.	8a\L	8a\L	(4c#\	-cu-	.	.	.	.	(4ee\	-cu-	4cc#\	4ee\
.	.	8ee\	8ee\	.	.	.	.	.	.	.	.	.	.
4A\	.	8dd\	8dd\	4A\)	.	4c#\	sae-	4a\	-cu-	4cc#\)	.	4a\	4cc#\
.	.	8cc#\J	8cc#\J	.	.	.	.	.	.	.	.	.	.
=60	=60	=60	=60	=60	=60	=60	=60	=60	=60	=60	=60	=60	=60
!	!	!LO:TX:a:t=P:problem:mixed beam	!LO:TX:a:t=P:problem:mixed beam	!	!	!	!	!	!	!	!	!	!
4B\	.	8dd\L	8dd\L	(4B\	-lo-	4B\	-cu-	4f#\	-lo-	4dd\	-lo-	1b	1dd
.	.	8e/	8e/	.	.	.	.	.	.	.	.	.	.
4A\	.	8e/	8e/	4A\)	.	4B\	-lo-	4f#\	-rum	4dd\	-rum	.	.
.	.	8e/J	8e/J	.	.	.	.	.	.	.	.	.	.
!	!	!LO:TX:a:t=P:problem:mixed beam	!LO:TX:a:t=P:problem:mixed beam	!	!	!	!	!	!	!	!	!	!
4G#\	56	8e/L	8e/L	(4G#\	-rum	4B\	-rum	4e\	sae-	4dd\	sae-	.	.
.	.	8dd\	8dd\	.	.	.	.	.	.	.	.	.	.
4E\	.	8cc#\	8cc#\	4E\)	.	4B\	a-	4e\	-cu-	4dd\	-cu-	.	.
.	.	8b\J	8b\J	.	.	.	.	.	.	.	.	.	.
!	!	!	!LO:LB:g=original	!	!	!	!	!	!	!	!	!	!
=61	=61	=61	=61	=61	=61	=61	=61	=61	=61	=61	=61	=61	=61
4A\	.	8cc#\L	8cc#\L	(4A\	sae-	2.A/	.	2.e\	-lo-	4cc#\	-lo-	4a\	4cc#\
.	.	8a\	8a\	.	.	.	.	.	.	.	.	.	.
4B\	.	8a\	8a\	4B\)	-cu-	.	.	.	.	4dd\	.	4b\	4dd\
.	.	8a\J	8a\J	.	.	.	.	.	.	.	.	.	.
!	!	!LO:LB:g=original	!	!	!	!	!	!	!	!	!	!	!
4c#\	.	8a\L	8a\L	(4c#\	-lo-	.	.	.	.	4ee\	-rum	4cc#\	4ee\
.	.	8aa\	8aa\	.	.	.	.	.	.	.	.	.	.
4A\	.	8aa\	8aa\	4A\)	-rum	4A/	-men	4e\	-rum	4cc#\	.	4a\	4cc#\
.	.	8aa\J	8aa\J	.	.	.	.	.	.	.	.	.	.
=62	=62	=62	=62	=62	=62	=62	=62	=62	=62	=62	=62	=62	=62
*	*	*	*	*	*	*	*ij	*	*ij	*	*	*	*
4D\	.	8ff#\L	8ff#\L	4D\	a-	4A/	a-	4f#\	sae-	4dd\	a-	1b	1dd
.	.	8a\	8a\	.	.	.	.	.	.	.	.	.	.
4E\	.	8a\	8a\	4E\	-men	4A/	-men	4gn\	-cu-	4dd\	-men,	.	.
.	.	8a\J	8a\J	.	.	.	.	.	.	.	.	.	.
4F#\	.	8a\L	8a\L	4F#\	et	4A/	a-	4a\	-lorum	4dd\	et	.	.
.	.	8ff#\	8ff#\	.	.	.	.	.	.	.	.	.	.
*	*	*	*	*	*	*	*	*	*Xij	*	*	*	*
4D\	.	8ee\	8ee\	4D\	in	4A/	-men	4f#\	et	4dd\	in	.	.
.	.	8dd\J	8dd\J	.	.	.	.	.	.	.	.	.	.
*	*	*	*	*	*	*	*Xij	*	*	*	*	*	*
!	!	!	!	!LO:LB:g=original	!	!	!	!	!	!LO:LB:g=original	!	!	!
=63	=63	=63	=63	=63	=63	=63	=63	=63	=63	=63	=63	=63	=63
4A\	.	8cc#\L	8cc#\L	4A\	sae-	4A/	sae-	4a\	in	4cc#\	sae-	4a\	4cc#\
.	.	8a\	8a\	.	.	.	.	.	.	.	.	.	.
4B\	.	8dd\	8dd\	8B\	-cu-	8A/	-cu-	4a\	sae-	8dd\	-cu-	4b\	4dd\
.	.	8a\J	8a\J	8B\	-la	8A/	-la	.	.	8dd\	-la	.	.
4c#\	.	8ee\L	8ee\L	4c#\	sae-	4A/	sae-	4a\	-cu-	4ee\	sae-	4cc#\	4ee\
.	.	8a\	8a\	.	.	.	.	.	.	.	.	.	.
4A\	.	8dd\	8cc#\	4A\	-cu-	4e\	-cu-	4a\	-la	4cc#\	-cu-	4a\	4cc#\
.	.	8a\J	8a\J	.	.	.	.	.	.	.	.	.	.
!LO:LB:g=original	!	!	!	!	!	!	!	!LO:LB:g=original	!	!	!	!	!
=64	=64	=64	=64	=64	=64	=64	=64	=64	=64	=64	=64	=64	=64
4B\	.	8dd\L	8dd\L	4B\	-lo-	4B\	.	4f#\	sae-	4dd\	-lo-	2b\	2dd\
.	.	8dd\	8dd\	.	.	.	.	.	.	.	.	.	.
4A\	.	8dd\	8dd\	4A\	-rum	4B\	-lo-	4f#\	-cu-	4dd\	-rum	.	.
.	.	8dd\J	8dd\J	.	.	.	.	.	.	.	.	.	.
4G#\	.	8dd\L	8dd\L	4G#\	A-	4B\	-rum	4e\	-lo-	4dd\	a-	2b\	2dd\
.	.	8dd\	8dd\	.	.	.	.	.	.	.	.	.	.
4E\	.	8dd\	8dd\	4E\	.	4B\	a-	4e\	-rum	4dd\	-men	.	.
.	.	8dd\J	8dd\J	.	.	.	.	.	.	.	.	.	.
!	!	!	!LO:LB:g=original	!	!	!LO:LB:g=original	!	!	!	!	!	!	!
=65	=65	=65	=65	=65	=65	=65	=65	=65	=65	=65	=65	=65	=65
*	*	*	*	*	*	*	*	*	*	*	*ij	*	*
4A\	.	8cc#\L	8cc#\L	4A\	.	4A\	-men	4e\	a-	4cc#\	a-	4a\	4cc#\
.	.	8a\	8a\	.	.	.	.	.	.	.	.	.	.
*	*	*	*	*	*	*	*ij	*	*	*	*	*	*
4B\	.	8dd\	8dd\	4B\	.	4A\	a-	4g#\	-men	4dd\	-men	4b\	4dd\
.	.	8a\J	8a\J	.	.	.	.	.	.	.	.	.	.
*	*	*	*	*	*	*	*	*	*ij	*	*Xij	*	*
4c#\	.	8ee\L	8ee\L	4c#\	.	4A\	-men	4a\	a-	4ee\	a-	4cc#\	4ee\
.	.	8a\	8a\	.	.	.	.	.	.	.	.	.	.
*	*	*	*	*	*	*	*Xij	*	*	*	*	*	*
4A\	.	8dd\	8ee\	4B\	.	4A\	a-	4g#\	-men	4cc#\	-men	4a\	4cc#\
.	.	8a\J	8a\J	.	.	.	.	.	.	.	.	.	.
!	!	!LO:LB:g=original	!	!	!	!	!	!	!	!	!	!	!
=66	=66	=66	=66	=66	=66	=66	=66	=66	=66	=66	=66	=66	=66
4A\	.	4cc#\	4cc#\	4A\	.	4A/	-men	4e\	a-	4cc#\	a-	4a\	4cc#\
*	*	*	*	*	*	*	*ij	*	*	*	*	*	*
4D\	6	4b\	4b\	4D\	.	4A/	a-	4f#\	-men	4b\	-men	4e/	4b\
*	*	*	*	*	*	*	*	*	*Xij	*	*	*	*
4E\	43	4.b\	4.b\	2E\	.	4A/	-men	2e\	a-	2b\	a-	2e/	2b\
*	*	*	*	*	*	*	*Xij	*	*	*	*	*	*
4EE/	.	.	.	.	.	4G#/	a-	.	.	.	.	.	.
.	.	8a\	8a\	.	.	.	.	.	.	.	.	.	.
=67	=67	=67	=67	=67	=67	=67	=67	=67	=67	=67	=67	=67	=67
1AA	.	1a	1a	1AA	-men.	1A	-men	1e	-men	1a	-men	1c#	1a
==	==	==	==	==	==	==	==	==	==	==	==	==	==
*-	*-	*-	*-	*-	*-	*-	*-	*-	*-	*-	*-	*-	*-
!!!system-decoration: [(s1,s2)][(s3,s4,s5,s6)][(s7,s8)][(s9)]
!!!ENC: Berenika Jozajtis
!!!END: 2024-05-16
!!!ENC: Leszek Kubiak
!!!END: 2024-08-18
